svgs/proton_drive.svg

<?xml version="1.0" encoding="UTF-8" standalone="no"?>
<svg
   width="24"
   height="24"
   viewBox="0 0 24 24"
   fill="none"
   version="1.1"
   id="svg27"
   sodipodi:docname="protondrive.svg"
   inkscape:version="1.2.1 (9c6d41e410, 2022-07-14)"
   xml:space="preserve"
   xmlns:inkscape="http://www.inkscape.org/namespaces/inkscape"
   xmlns:sodipodi="http://sodipodi.sourceforge.net/DTD/sodipodi-0.dtd"
   xmlns="http://www.w3.org/2000/svg"
   xmlns:svg="http://www.w3.org/2000/svg"><sodipodi:namedview
     id="namedview29"
     pagecolor="#505050"
     bordercolor="#ffffff"
     borderopacity="1"
     inkscape:showpageshadow="0"
     inkscape:pageopacity="0"
     inkscape:pagecheckerboard="1"
     inkscape:deskcolor="#505050"
     showgrid="false"
     inkscape:zoom="32"
     inkscape:cx="7.875"
     inkscape:cy="10.46875"
     inkscape:window-width="1533"
     inkscape:window-height="838"
     inkscape:window-x="103"
     inkscape:window-y="103"
     inkscape:window-maximized="0"
     inkscape:current-layer="svg27" /><path
     d="M 3.0000002,17.586207 3,6.4137929 C 3,5.3854136 3.8336902,4.551724 4.8620692,4.551724 h 3.4921037 c 0.352396,0 0.695534,0.1124483 0.979551,0.3209483 l 1.1687591,0.8581034 c 0.284017,0.2085 0.627155,0.3209483 0.979552,0.3209483 h 7.655896 C 20.16631,6.051724 21,6.8854136 21,7.9137929 v 9.6724141 c 0,1.028379 -0.83369,1.861773 -1.862069,1.861793 l -14.2758618,2.76e-4 c -1.028379,2e-5 -1.862069,-0.83369 -1.862069,-1.862069 z m 13.2222048,1.861829 0.949476,-7.3e-5 L 17.172,9.473444 C 17.172026,8.6703233 16.51856,8.0205646 15.715491,8.0251681 L 8.6649738,8.0657715 C 8.3613531,8.0675819 8.0648187,7.9738577 7.8173186,7.7978922 L 6.2472324,6.6813749 C 6.0021117,6.5070128 5.7087324,6.4133404 5.4079048,6.4133404 L 3,6.4129266 V 7.363 l 2.1579032,-6.04e-5 c 0.3008276,0 0.5942069,0.093621 0.8393276,0.2679828 L 7.56732,8.746991 c 0.2475001,0.17597 0.5440345,0.26968 0.8476552,0.26788 L 14.765698,8.974793 c 0.803069,-0.0046 1.456638,0.645155 1.456604,1.448276 z"
     fill="url(#paint0_linear_5497_105462)"
     id="path4"
     style="display:inline;fill:#000000;fill-opacity:1;stroke-width:0.0517241"
     sodipodi:nodetypes="ssssccsssssssccscccccccccccccc" /><defs
     id="defs25"><linearGradient
       id="paint0_linear_5497_105462"
       x1="276.25"
       y1="-13.7704"
       x2="303.22"
       y2="365.77499"
       gradientUnits="userSpaceOnUse"
       gradientTransform="matrix(0.05172414,0,0,0.05172414,-2.2758628,-2.2758623)"><stop
         offset="0.988738"
         stop-color="#6D4AFF"
         id="stop10"
         style="stop-color:#000000;stop-opacity:1;" /></linearGradient><radialGradient
       id="paint1_radial_5497_105462"
       cx="0"
       cy="0"
       r="1"
       gradientUnits="userSpaceOnUse"
       gradientTransform="matrix(-220.58544,450.74872,-701.26537,-343.18219,387.589,5.75312)"><stop
         offset="0.556057"
         stop-color="#FF62C0"
         stop-opacity="0"
         id="stop13" /><stop
         offset="0.994421"
         stop-color="#FF62C0"
         id="stop15" /></radialGradient><linearGradient
       id="paint2_linear_5497_105462"
       x1="560.32147"
       y1="427.22507"
       x2="511.10889"
       y2="317.3721"
       gradientUnits="userSpaceOnUse"
       gradientTransform="translate(-430.02282,-10.564919)"><stop
         offset="0"
         stop-color="#AE8CFF"
         id="stop20" /><stop
         offset="1"
         stop-color="#F8CCFF"
         id="stop22" /></linearGradient><linearGradient
       id="paint0_linear_5497_105462-3"
       x1="276.25"
       y1="-13.7704"
       x2="303.22"
       y2="365.775"
       gradientUnits="userSpaceOnUse"><stop
         offset="0.988738"
         stop-color="#6D4AFF"
         id="stop146" /></linearGradient><radialGradient
       id="paint1_radial_5497_105462-6"
       cx="0"
       cy="0"
       r="1"
       gradientUnits="userSpaceOnUse"
       gradientTransform="matrix(-220.58544,450.74872,-701.26537,-343.18219,387.589,5.75312)"><stop
         offset="0.556057"
         stop-color="#FF62C0"
         stop-opacity="0"
         id="stop149" /><stop
         offset="0.994421"
         stop-color="#FF62C0"
         id="stop151" /></radialGradient><radialGradient
       id="paint1_radial_5497_105462-7"
       cx="0"
       cy="0"
       r="1"
       gradientUnits="userSpaceOnUse"
       gradientTransform="matrix(-220.58544,450.74872,-701.26537,-343.18219,387.589,5.75312)"><stop
         offset="0.556057"
         stop-color="#FF62C0"
         stop-opacity="0"
         id="stop424" /><stop
         offset="0.994421"
         stop-color="#FF62C0"
         id="stop426" /></radialGradient><linearGradient
       id="paint2_linear_5497_105462-5"
       x1="-15"
       y1="84"
       x2="420"
       y2="562"
       gradientUnits="userSpaceOnUse"><stop
         stop-color="#6D4AFF"
         id="stop429" /><stop
         offset="0.35934"
         stop-color="#AE8CFF"
         id="stop431" /><stop
         offset="1"
         stop-color="#F8CCFF"
         id="stop433" /></linearGradient></defs></svg>

<svg xmlns="http://www.w3.org/2000/svg" xml:space="preserve" width="24" height="24" fill="none" viewBox="0 0 24 24"><path fill="url(#a)" d="M3 17.586V6.414c0-1.029.834-1.862 1.862-1.862h3.492c.353 0 .696.112.98.32l1.168.859c.285.208.628.32.98.32h7.656c1.028 0 1.862.834 1.862 1.863v9.672a1.862 1.862 0 0 1-1.862 1.862H4.862A1.862 1.862 0 0 1 3 17.586m13.222 1.862h.95V9.473c0-.803-.653-1.452-1.457-1.448l-7.05.04a1.44 1.44 0 0 1-.848-.267L6.247 6.68a1.448 1.448 0 0 0-.84-.268H3v.95h2.158c.3 0 .594.094.84.268l1.57 1.116c.247.176.543.27.847.268l6.35-.04a1.448 1.448 0 0 1 1.457 1.448z" style="display:inline;fill:#000;fill-opacity:1;stroke-width:.0517241"/><defs><linearGradient id="a" x1="276.25" x2="303.22" y1="-13.77" y2="365.775" gradientTransform="translate(-2.276 -2.276)scale(.05172)" gradientUnits="userSpaceOnUse"><stop offset=".989" stop-color="#6D4AFF" style="stop-color:#000;stop-opacity:1"/></linearGradient></defs></svg>
